X:15661
T:Snowy Path
M:9/8
L:1/8
R:Slip Jig
D:Altan's "Harvest Storm"
K:D
F2A B2F A2F|G2B d2e dBA|F2A B2F A2F|1E2D E2F GFE:|2E2D E2F GAB||!
c3 c2e d2c|B2G B2c d2e|1f3 f2e d2B|A2G F2G A2B:|2d2A B2F A2F|E2D E2F GFE
||!
